svgs/duotone/police-box.svg

<svg xmlns="http://www.w3.org/2000/svg" viewBox="0 0 384 512"><!-- Font Awesome Pro 5.15.3 by @fontawesome - https://fontawesome.com License - https://fontawesome.com/license (Commercial License) --><defs><style>.fa-secondary{opacity:.4}</style></defs><path d="M208,200a8.00039,8.00039,0,0,0,8,8h24V176H208Zm80,0V176H256v32h24A8.00039,8.00039,0,0,0,288,200Zm-80-40h32V128H216a8.00039,8.00039,0,0,0-8,8Zm80-24a8.00039,8.00039,0,0,0-8-8H256v32h32ZM104,208h24V176H96v24A8.00039,8.00039,0,0,0,104,208Zm24-80H104a8.00039,8.00039,0,0,0-8,8v24h32Zm48,72V176H144v32h24A8.00039,8.00039,0,0,0,176,200Zm0-64a8.00039,8.00039,0,0,0-8-8H144v32h32ZM208,16a16,16,0,0,0-32,0V32h32ZM368,464H16A15.99954,15.99954,0,0,0,0,480v16a16.00079,16.00079,0,0,0,16,16H368a16.00079,16.00079,0,0,0,16-16V480A15.99954,15.99954,0,0,0,368,464Z" class="fa-secondary"/><path d="M352,464V88a23.99993,23.99993,0,0,0-24-24h-8.02344V48a15.99954,15.99954,0,0,0-16-16H80A15.99954,15.99954,0,0,0,64,48V64H56A23.99993,23.99993,0,0,0,32,88V464ZM96,136a8.00039,8.00039,0,0,1,8-8h24v32H96Zm0,40h32v32H104a8.00039,8.00039,0,0,1-8-8Zm80,136a8.00039,8.00039,0,0,1-8,8H104a8.00039,8.00039,0,0,1-8-8V248a8.00039,8.00039,0,0,1,8-8h64a8.00039,8.00039,0,0,1,8,8Zm0-112a8.00039,8.00039,0,0,1-8,8H144V176h32Zm0-40H144V128h24a8.00039,8.00039,0,0,1,8,8Zm64,48H216a8.00039,8.00039,0,0,1-8-8V176h32Zm0-48H208V136a8.00039,8.00039,0,0,1,8-8h24Zm48,40a8.00039,8.00039,0,0,1-8,8H256V176h32Zm0-40H256V128h24a8.00039,8.00039,0,0,1,8,8Z" class="fa-primary"/></svg>

<svg xmlns="http://www.w3.org/2000/svg" viewBox="0 0 384 512"><!--! Font Awesome Pro 6.0.0 by @fontawesome - https://fontawesome.com License - https://fontawesome.com/license (Commercial License) Copyright 2022 Fonticons, Inc. --><defs><style>.fa-secondary{opacity:.4}</style></defs><path class="fa-primary" d="M288 32C305.7 32 320 46.33 320 64C337.7 64 352 78.33 352 96V464H32V96C32 78.33 46.33 64 64 64C64 46.33 78.33 32 96 32H288zM96 160H128V128H104C99.58 128 96 131.6 96 136V160zM96 200C96 204.4 99.58 208 104 208H128V176H96V200zM168 128H144V160H176V136C176 131.6 172.4 128 168 128zM144 208H168C172.4 208 176 204.4 176 200V176H144V208zM216 128C211.6 128 208 131.6 208 136V160H240V128H216zM240 176H208V200C208 204.4 211.6 208 216 208H240V176zM256 160H288V136C288 131.6 284.4 128 280 128H256V160zM288 176H256V208H280C284.4 208 288 204.4 288 200V176zM96 304C96 312.8 103.2 320 112 320H160C168.8 320 176 312.8 176 304V256C176 247.2 168.8 240 160 240H112C103.2 240 96 247.2 96 256V304z"/><path class="fa-secondary" d="M208 32H176V16C176 7.164 183.2 0 192 0C200.8 0 208 7.164 208 16V32zM128 128V160H96V136C96 131.6 99.58 128 104 128H128zM128 208H104C99.58 208 96 204.4 96 200V176H128V208zM144 128H168C172.4 128 176 131.6 176 136V160H144V128zM176 200C176 204.4 172.4 208 168 208H144V176H176V200zM360 464C373.3 464 384 474.7 384 488C384 501.3 373.3 512 360 512H24C10.75 512 0 501.3 0 488C0 474.7 10.75 464 24 464H360zM208 136C208 131.6 211.6 128 216 128H240V160H208V136zM208 176H240V208H216C211.6 208 208 204.4 208 200V176zM288 136V160H256V128H280C284.4 128 288 131.6 288 136zM256 176H288V200C288 204.4 284.4 208 280 208H256V176z"/></svg>
